X:18240
T:Vaqueirada (CT 264)
R:Vaqueirada
C:Tradicional
S:Música Tradicional Asturiana, (C) Tello & Tito. Asturies, 2001.
S:http://pagina.de/MusTradAst <telloytito@asturies.org>
N:Canción de baile de pandero, transcrita en Cangas de Tinéu.
O:Cangas de Tinéu (Tinéu)
A:Asturies
Z:Cancioneru de Torner 264
M:6/8
L:1/8
Q:3/8=88
W:Los vaqueiros vanse, vanse,
W:ya queda la braña escura,
W:ya s'acabó la parola
W:y el cortexar a la lluna.
K:G
|GGG GBc|dd2- d3|GGG GBc|dd2- d2z|
cdd cdc|(B3/2A/2)G GG2|G2F GF2|GG2- G2z||

